static/img/kit-icon.svg

<svg viewBox="0 0 37.5 34.91" xmlns="http://www.w3.org/2000/svg"><path d="m36 6.23h-5.38v-4.73a1.5 1.5 0 0 0 -1.5-1.5h-20.29a1.5 1.5 0 0 0 -1.5 1.5v4.73h-5.83a1.5 1.5 0 0 0 -1.5 1.5v25.68a1.5 1.5 0 0 0 1.5 1.5h34.5a1.5 1.5 0 0 0 1.5-1.5v-25.68a1.5 1.5 0 0 0 -1.5-1.5zm-25.67-3.23h17.29v3.23h-17.29zm24.17 28.91h-31.5v-22.68h31.5z"/></svg>

<svg id="Layer_1" data-name="Layer 1" xmlns="http://www.w3.org/2000/svg" viewBox="0 0 37.5 34.91"><title>kit-icon</title><path d="M36,6.23H30.62V1.5A1.5,1.5,0,0,0,29.12,0H8.83a1.5,1.5,0,0,0-1.5,1.5V6.23H1.5A1.5,1.5,0,0,0,0,7.73V33.41a1.5,1.5,0,0,0,1.5,1.5H36a1.5,1.5,0,0,0,1.5-1.5V7.73A1.5,1.5,0,0,0,36,6.23ZM10.33,3H27.62V6.23H10.33ZM34.5,31.91H3V9.23H34.5Z"/></svg>
